!!!OTL-incipit: DER MAI IST NICHT IN BLUETHEN KARG
!!!ARE: Europa, Mitteleuropa, Deutschland, Niederrhein
!!!SCT: Z0057
!!!TXL: @@DE
!!!YEM: Copyright 1995, estate of Helmut Schaffrath.
**kern	**text
*ICvox	*
*M3/8	*
*k[]	*
!LO:TX:a:t=Vorſänger.	!
!LO:TX:a:t=Niederrhein.	!
{8e	Der
=1	=1
4a	Mai
8b/	iſt
=2	=2
4cc	nicht
8dd	in
=3	=3
4b	Blü-
8cc	-then
=4	=4
4a}	karg,
!LO:TX:a:t=Alle.	!
{8a	ſchön
=5	=5
8g#L	Lin-
8aJ	.
8b/	-den-
=6	=6
4a}	-ʒweig,
!LO:TX:a:t=Vorſänger.	!
{8b/	der
=7	=7
4cc	Kö-
8dd	-nig
=8	=8
8b	ſitʒt
8b	an
8cc	der
=9	=9
4a	Lieb-
8g#	-ſten
=10	=10
4a}	Sarg,
!LO:TX:a:t=Alle.	!
{8gn	o
=11	=11
16fL	A-
16eJ	.
8d	-bend,
8f	o
=12	=12
16eL	A-
16dJ	.
8c#}	-bend,
{8c#	die
=13	=13
8dL	mü-
8eJ	.
8f	-den
=14	=14
4g	Ar-
8a	-me
=15	=15
(4e	ru-
16fL	.
16eJ)	.
=16	=16
4d}	-hen.
==:|;;	==:|;;
!!!AGN: Sagen - Lied, Romanze
!! Modulation, wenn alle einsetzen (T.11)
!!!ONB: ESAC (Essen Associative Code) Database: ZUCCAL
!!!AMT: simple triple
!!!AIN: vox
!!!EED: Helmut Schaffrath
!!!EEV: 1.0
!!!GTL: I. Ernste Romanzen und Sagen.
!!!URL-scan: https://www.digitale-sammlungen.de/de/view/bsb11160571?page=112
!!!ENC: Anna Maria Matuszewska
!!!EEV: 2025/01/24
*-	*-
